X: 711
T: THE HUMORS OF BANTRY
M:6/8
L:1/8
B:O'NEILL'S 711
N:"collected by F. O'Neill"
Z:Transcribed by A. LEE WORMAN
N:Staff breaks fixed [jc]
K:G
d|gfg (e/f/g)e|dBG AGE|DEG AGA|BGB AGE|
gfg (e/f/g)e|dBG AGE|DEG AGA|BGG G2:|
d|edd gdd|edd gdB|def {a}gfg|edB AGE |
|1 gfg (e/f/g)e| dBG AGE|DGG (A/B/c)A|BGG G2 :|
|2 gfg aga|bge edB|GFG (A/B/c)A|BGG G2|]


